svg/camera.svg

<svg xmlns="http://www.w3.org/2000/svg" viewBox="0 0 32 32" enable-background="new 0 0 32 32"><path d="M 11.5 6 L 11.1875 6.40625 L 10 8 L 4 8 L 3 8 L 3 9 L 3 25 L 3 26 L 4 26 L 28 26 L 29 26 L 29 25 L 29 9 L 29 8 L 28 8 L 22 8 L 20.8125 6.40625 L 20.5 6 L 20 6 L 12 6 L 11.5 6 z M 12.5 8 L 19.5 8 L 20.6875 9.59375 L 21 10 L 21.5 10 L 27 10 L 27 24 L 5 24 L 5 10 L 10.5 10 L 11 10 L 11.3125 9.59375 L 12.5 8 z M 8 11 C 7.4477153 11 7 11.447715 7 12 C 7 12.552285 7.4477153 13 8 13 C 8.5522847 13 9 12.552285 9 12 C 9 11.447715 8.5522847 11 8 11 z M 16 11 C 12.698136 11 10 13.698136 10 17 C 10 20.301864 12.698136 23 16 23 C 19.301864 23 22 20.301864 22 17 C 22 13.698136 19.301864 11 16 11 z M 16 13 C 18.220984 13 20 14.779016 20 17 C 20 19.220984 18.220984 21 16 21 C 13.779016 21 12 19.220984 12 17 C 12 14.779016 13.779016 13 16 13 z" color="#000" overflow="visible" enable-background="accumulate"/></svg>

<svg xmlns="http://www.w3.org/2000/svg" viewBox="0 0 32 32"><path d="M11.5 6l-.313.406L10 8H3v18h26V8h-7l-1.188-1.594L20.5 6h-9zm1 2h7l1.188 1.594L21 10h6v14H5V10h6l.313-.406L12.5 8zM8 11c-.552 0-1 .448-1 1s.448 1 1 1 1-.448 1-1-.448-1-1-1zm8 0c-3.302 0-6 2.698-6 6s2.698 6 6 6 6-2.698 6-6-2.698-6-6-6zm0 2c2.22 0 4 1.78 4 4 0 2.22-1.78 4-4 4-2.22 0-4-1.78-4-4 0-2.22 1.78-4 4-4z"/></svg>
